Origami/64x64/apps/mono.svg

<svg width="64" height="64" version="1" xmlns="http://www.w3.org/2000/svg">
 <rect transform="matrix(0,-1,-1,0,0,0)" x="-61" y="-60" width="56" height="56" rx="3" ry="3" style="opacity:.2"/>
 <rect transform="matrix(0,-1,-1,0,0,0)" x="-60" y="-60" width="56" height="56" rx="3" ry="3" style="fill:#4a5579"/>
 <path d="m7 4c-1.662 0-3 1.338-3 3v1c0-1.662 1.338-3 3-3h50c1.662 0 3 1.338 3 3v-1c0-1.662-1.338-3-3-3h-50z" style="fill:#ffffff;opacity:.1"/>
 <path d="m18.713 48.943c0-0.198 6.678-8.235 6.821-8.203 0.079 0.022 3.067 1.288 6.629 2.819 6.092 2.617 6.099 2.773 6.261 2.554 0.25-0.339 1.109-2.032 1.562-3.167l0.385-0.965-0.645-0.355c-0.921-0.5-1.871-1.621-2.714-2.585-0.771-0.881-2.161-3.002-2.161-3.3 0-0.098 0.442 0.35 0.984 0.996 1.515 1.803 4.61 4.639 4.828 4.237 0.26-0.479 0.432-1.887 0.421-3.524-0.01-1.995-0.27-3.449-0.958-5.591l-0.385-0.859c-1.32-0.789-2.37-1.215-3.824-1.673-0.822-0.261-0.306-0.246 0.891 0.026 1.437 0.323 3.201 0.589 4.102 0.703 0.802 0.099 0.973-0.057 1.057-0.938 0.109-1.131-0.614-4.057-1.354-5.606-0.292-0.62-0.427-0.76-1.016-1.027-1.953-0.912-8.379-1.746-10.978-1.474-1.125 0.115-2.276 0.391-2.64 0.62-0.098 0.079 0.625 0.255 1.869 0.485 1.12 0.208 1.937 0.39 1.817 0.421-0.136 0.021-1.885-0.072-3.92-0.332-3.562-0.459-3.993-0.234-4.252-5e-3 -0.522 0.47-1.26 1.011-1.418 1.698-0.145 0.662-0.135 0.74 0.194 1.413 0.562 1.151 1.914 1.99 4.293 3.195 1.125 0.584 2.021 1.063 1.989 1.099-0.036 0.031-1-0.328-2.135-0.803l-2.079-0.86-3.046 0.855c-1.671 0.464-3.098 0.85-3.166 0.85-0.084 0-0.125-2.023-0.125-5.452 0-5.248 0.011-5.467 0.271-6.003 0.155-0.329 0.463-0.678 0.739-0.845l0.479-0.297 13.945-0.042c7.665-0.021 14.262 0 14.633 0.042 0.855 0.104 1.625 0.729 1.828 1.484 0.088 0.329 0.12 5.296 0.098 14.743l-0.036 14.233-0.297 0.473c-0.172 0.282-0.521 0.589-0.844 0.746-0.546 0.266-0.656 0.271-14.314 0.271-7.572 0-13.773-0.047-13.773-0.099" style="opacity:.2"/>
 <path d="m18.712686 47.942967c0-0.197456 6.67863-8.234436 6.821268-8.202416 0.07865 0.02135 3.067371 1.287464 6.629307 2.81908 6.092084 2.616288 6.099044 2.772384 6.260345 2.553582 0.250615-0.338876 1.109105-2.031611 1.562346-3.166981l0.385254-0.964597-0.645201-0.354887c-0.921144-0.50031-1.870578-1.621004-2.714405-2.585602-0.770508-0.880546-2.16089-3.00186-2.16089-3.299378 0-0.09873 0.442576 0.34955 0.983798 0.995284 1.51569 1.803784 4.610017 4.638874 4.828638 4.237292 0.259947-0.478964 0.431912-1.886502 0.421247-3.523517-0.01066-1.995903-0.270611-3.448984-0.95847-5.591644l-0.385254-0.859184c-1.320161-0.788615-2.369828-1.214938-3.823511-1.673052-0.822498-0.260161-0.306604-0.245486 0.890484 0.02668 1.437039 0.322867 3.201184 0.588365 4.102332 0.703102 0.802503 0.09873 0.973134-0.05737 1.057117-0.937914 0.109311-1.131368-0.614541-4.057083-1.354389-5.606043-0.29194-0.620384-0.426579-0.760471-1.015792-1.027303-1.952933-0.912566-8.378788-1.746416-10.978255-1.474247-1.125103 0.114738-2.275534 0.390909-2.639459 0.620384-0.09865 0.07872 0.625205 0.254825 1.86895 0.4843 1.11977 0.208129 1.936936 0.390909 1.816961 0.421595-0.135972 0.02135-1.884947-0.07174-3.92053-0.331903-3.561936-0.458951-3.992109-0.234709-4.252056-0.0052-0.521226 0.469624-1.259742 1.010655-1.417043 1.697748-0.145303 0.661743-0.135972 0.740459 0.193294 1.412875 0.562551 1.15138 1.913869 1.990567 4.293381 3.195313 1.125103 0.584362 2.020919 1.063326 1.988926 1.099348-0.03599 0.03069-0.999795-0.328203-2.135563-0.803164l-2.07824-0.860533-3.046042 0.855196c-1.671657 0.464288-3.098032 0.84986-3.166018 0.84986-0.08398 0-0.125307-2.022586-0.125307-5.451378 0-5.248585 0.01066-5.467387 0.270611-6.00372 0.155968-0.328203 0.463905-0.677753 0.739848-0.844523l0.478569-0.297518 13.94514-0.04136c7.665095-0.02135 14.262409 0 14.633 0.04136 0.854491 0.104065 1.625 0.729786 1.827625 1.484921 0.08798 0.328203 0.119976 5.295281 0.09865 14.742468l-0.03599 14.232818-0.297272 0.473627c-0.171965 0.281508-0.521227 0.588365-0.843827 0.745796-0.546555 0.265497-0.655866 0.270834-14.314399 0.270834-7.57178 0-13.773175-0.04669-13.773175-0.09873" style="fill:#ffffff"/>
</svg>

<svg xmlns="http://www.w3.org/2000/svg" width="64" height="64" version="1">
 <rect style="opacity:0.2" width="56" height="56" x="-61" y="-60" rx="3" ry="3" transform="matrix(0,-1,-1,0,0,0)"/>
 <rect style="fill:#4a5579" width="56" height="56" x="-60" y="-60" rx="3" ry="3" transform="matrix(0,-1,-1,0,0,0)"/>
 <path style="opacity:0.1;fill:#ffffff" d="M 7 4 C 5.338 4 4 5.338 4 7 L 4 8 C 4 6.338 5.338 5 7 5 L 57 5 C 58.662 5 60 6.338 60 8 L 60 7 C 60 5.338 58.662 4 57 4 L 7 4 z"/>
 <path style="opacity:0.2" d="M 18.713,48.943 C 18.713,48.745 25.391,40.708 25.534,40.74 25.613,40.762 28.601,42.028 32.163,43.559 38.255,46.176 38.262,46.332 38.424,46.113 38.674,45.774 39.533,44.081 39.986,42.946 L 40.371,41.981 39.726,41.626 C 38.805,41.126 37.855,40.005 37.012,39.041 36.241,38.16 34.851,36.039 34.851,35.741 34.851,35.643 35.293,36.091 35.835,36.737 37.35,38.54 40.445,41.376 40.663,40.974 40.923,40.495 41.095,39.087 41.084,37.45 41.074,35.455 40.814,34.001 40.126,31.859 L 39.741,31 C 38.421,30.211 37.371,29.785 35.917,29.327 35.095,29.066 35.611,29.081 36.808,29.353 38.245,29.676 40.009,29.942 40.91,30.056 41.712,30.155 41.883,29.999 41.967,29.118 42.076,27.987 41.353,25.061 40.613,23.512 40.321,22.892 40.186,22.752 39.597,22.485 37.644,21.573 31.218,20.739 28.619,21.011 27.494,21.126 26.343,21.402 25.979,21.631 25.881,21.71 26.604,21.886 27.848,22.116 28.968,22.324 29.785,22.506 29.665,22.537 29.529,22.558 27.78,22.465 25.745,22.205 22.183,21.746 21.752,21.971 21.493,22.2 20.971,22.67 20.233,23.211 20.075,23.898 19.93,24.56 19.94,24.638 20.269,25.311 20.831,26.462 22.183,27.301 24.562,28.506 25.687,29.09 26.583,29.569 26.551,29.605 26.515,29.636 25.551,29.277 24.416,28.802 L 22.337,27.942 19.291,28.797 C 17.62,29.261 16.193,29.647 16.125,29.647 16.041,29.647 16,27.624 16,24.195 16,18.947 16.011,18.728 16.271,18.192 16.426,17.863 16.734,17.514 17.01,17.347 L 17.489,17.05 31.434,17.008 C 39.099,16.987 45.696,17.008 46.067,17.05 46.922,17.154 47.692,17.779 47.895,18.534 47.983,18.863 48.015,23.83 47.993,33.277 L 47.957,47.51 47.66,47.983 C 47.488,48.265 47.139,48.572 46.816,48.729 46.27,48.995 46.16,49 32.502,49 24.93,49 18.729,48.953 18.729,48.901"/>
 <path style="fill:#ffffff" d="m 18.712686,47.942967 c 0,-0.197456 6.67863,-8.234436 6.821268,-8.202416 0.07865,0.02135 3.067371,1.287464 6.629307,2.81908 6.092084,2.616288 6.099044,2.772384 6.260345,2.553582 0.250615,-0.338876 1.109105,-2.031611 1.562346,-3.166981 l 0.385254,-0.964597 -0.645201,-0.354887 c -0.921144,-0.50031 -1.870578,-1.621004 -2.714405,-2.585602 -0.770508,-0.880546 -2.16089,-3.00186 -2.16089,-3.299378 0,-0.09873 0.442576,0.34955 0.983798,0.995284 1.51569,1.803784 4.610017,4.638874 4.828638,4.237292 0.259947,-0.478964 0.431912,-1.886502 0.421247,-3.523517 -0.01066,-1.995903 -0.270611,-3.448984 -0.95847,-5.591644 l -0.385254,-0.859184 c -1.320161,-0.788615 -2.369828,-1.214938 -3.823511,-1.673052 -0.822498,-0.260161 -0.306604,-0.245486 0.890484,0.02668 1.437039,0.322867 3.201184,0.588365 4.102332,0.703102 0.802503,0.09873 0.973134,-0.05737 1.057117,-0.937914 0.109311,-1.131368 -0.614541,-4.057083 -1.354389,-5.606043 -0.29194,-0.620384 -0.426579,-0.760471 -1.015792,-1.027303 -1.952933,-0.912566 -8.378788,-1.746416 -10.978255,-1.474247 -1.125103,0.114738 -2.275534,0.390909 -2.639459,0.620384 -0.09865,0.07872 0.625205,0.254825 1.86895,0.4843 1.11977,0.208129 1.936936,0.390909 1.816961,0.421595 -0.135972,0.02135 -1.884947,-0.07174 -3.92053,-0.331903 -3.561936,-0.458951 -3.992109,-0.234709 -4.252056,-0.0052 -0.521226,0.469624 -1.259742,1.010655 -1.417043,1.697748 -0.145303,0.661743 -0.135972,0.740459 0.193294,1.412875 0.562551,1.15138 1.913869,1.990567 4.293381,3.195313 1.125103,0.584362 2.020919,1.063326 1.988926,1.099348 -0.03599,0.03069 -0.999795,-0.328203 -2.135563,-0.803164 l -2.07824,-0.860533 -3.046042,0.855196 c -1.671657,0.464288 -3.098032,0.84986 -3.166018,0.84986 -0.08398,0 -0.125307,-2.022586 -0.125307,-5.451378 0,-5.248585 0.01066,-5.467387 0.270611,-6.00372 0.155968,-0.328203 0.463905,-0.677753 0.739848,-0.844523 l 0.478569,-0.297518 13.94514,-0.04136 c 7.665095,-0.02135 14.262409,0 14.633,0.04136 0.854491,0.104065 1.625,0.729786 1.827625,1.484921 0.08798,0.328203 0.119976,5.295281 0.09865,14.742468 l -0.03599,14.232818 -0.297272,0.473627 c -0.171965,0.281508 -0.521227,0.588365 -0.843827,0.745796 -0.546555,0.265497 -0.655866,0.270834 -14.314399,0.270834 -7.57178,0 -13.773175,-0.04669 -13.773175,-0.09873"/>
</svg>
